_site/images/verification-page/release-icon.svg

<svg fill="none" height="80" viewBox="0 0 80 80" width="80" xmlns="http://www.w3.org/2000/svg"><rect fill="#00b6ab" height="80" rx="25" width="80"/><path d="m35.8383 46.1392c0 .3877.192.7503.5134.9696.3893.265.7189.401.845.428.5688.0833 7.0862.7798 11.3599 1.2314l-.3079 2.9132c-3.3291-.3516-11.1209-1.1783-11.5722-1.2614-.7961-.1465-1.5789-.6207-1.9746-.8904-.377-.257-.7018-.5715-.9684-.9262l-.0135.0137-7.0301-6.899c-.2792-.2742-.6484-.4225-1.0396-.4193-.3912.0037-.7576.1593-1.0318.4386-.274.2797-.4227.6486-.4193 1.04.0037.3912.1595.7576.4388 1.0318l10.8718 10.6689c.8687.8532 2.0181 1.3227 3.2353 1.3227h20.0244v2.9297h-20.0244c-1.9897 0-3.8674-.7677-5.2874-2.1611l-10.8717-10.6691c-.8379-.8224-1.3053-1.9215-1.3163-3.0954-.0112-1.1737.4358-2.2815 1.2577-3.1192.8224-.838 1.9215-1.3053 3.0954-1.3163 1.1719-.0106 2.2813.4355 3.1195 1.2577l4.6561 4.5698c.3772-.6981.9503-1.2748 1.6454-1.6562-2.8493-2.1691-4.6923-5.5957-4.6923-9.445 0-6.5426 5.3227-11.8652 11.8653-11.8652 2.379 0 4.5961.7045 6.4553 1.9146l-2.0546 2.1764c-1.2996-.7388-2.8018-1.1613-4.4007-1.1613-4.9269 0-8.9356 4.0086-8.9356 8.9355s4.0087 8.9355 8.9356 8.9355c4.8504 0 8.8108-3.885 8.9325-8.7068l2.6498-2.8068c.1847.8304.2829 1.6928.2829 2.5781 0 3.6713-1.6763 6.9582-4.3037 9.1365 2.688.4081 5.2375 1.4413 7.4781 3.0446l1.5131 1.0826v3.6026l-3.2181-2.3025c-2.4135-1.7272-5.2576-2.6592-8.2251-2.6949-.0604-.0009-.1199-.0014-.1815-.0011l-10.1339.0041c-.6469-.0003-1.1726.5255-1.1726 1.1716zm2.3341-16.1634-2.0187 2.1231 6.3895 6.0743 11.8716-12.5757-2.1304-2.0109-9.8534 10.4374z" fill="#fff"/></svg>

<svg width="80" height="80" viewBox="0 0 80 80" fill="none" xmlns="http://www.w3.org/2000/svg">
<rect width="80" height="80" rx="25" fill="#00B6AB"/>
<path d="M35.8383 46.1392C35.8383 46.5269 36.0303 46.8895 36.3517 47.1088C36.741 47.3738 37.0706 47.5098 37.1967 47.5368C37.7655 47.6201 44.2829 48.3166 48.5566 48.7682L48.2487 51.6814C44.9196 51.3298 37.1278 50.5031 36.6765 50.42C35.8804 50.2735 35.0976 49.7993 34.7019 49.5296C34.3249 49.2726 34.0001 48.9581 33.7335 48.6034L33.72 48.6171L26.6899 41.7181C26.4107 41.4439 26.0415 41.2956 25.6503 41.2988C25.2591 41.3025 24.8927 41.4581 24.6185 41.7374C24.3445 42.0171 24.1958 42.386 24.1992 42.7774C24.2029 43.1686 24.3587 43.535 24.638 43.8092L35.5098 54.4781C36.3785 55.3313 37.5279 55.8008 38.7451 55.8008H58.7695V58.7305H38.7451C36.7554 58.7305 34.8777 57.9628 33.4577 56.5694L22.586 45.9003C21.7481 45.0779 21.2807 43.9788 21.2697 42.8049C21.2585 41.6312 21.7055 40.5234 22.5274 39.6857C23.3498 38.8477 24.4489 38.3804 25.6228 38.3694C26.7947 38.3588 27.9041 38.8049 28.7423 39.6271L33.3984 44.1969C33.7756 43.4988 34.3487 42.9221 35.0438 42.5407C32.1945 40.3716 30.3515 36.945 30.3515 33.0957C30.3515 26.5531 35.6742 21.2305 42.2168 21.2305C44.5958 21.2305 46.8129 21.935 48.6721 23.1451L46.6175 25.3215C45.3179 24.5827 43.8157 24.1602 42.2168 24.1602C37.2899 24.1602 33.2812 28.1688 33.2812 33.0957C33.2812 38.0226 37.2899 42.0312 42.2168 42.0312C47.0672 42.0312 51.0276 38.1462 51.1493 33.3244L53.7991 30.5176C53.9838 31.348 54.082 32.2104 54.082 33.0957C54.082 36.767 52.4057 40.0539 49.7783 42.2322C52.4663 42.6403 55.0158 43.6735 57.2564 45.2768L58.7695 46.3594V49.962L55.5514 47.6595C53.1379 45.9323 50.2938 45.0003 47.3263 44.9646C47.2659 44.9637 47.2064 44.9632 47.1448 44.9635L37.0109 44.9676C36.364 44.9673 35.8383 45.4931 35.8383 46.1392ZM38.1724 29.9758L36.1537 32.0989L42.5432 38.1732L54.4148 25.5975L52.2844 23.5866L42.431 34.024L38.1724 29.9758Z" fill="white"/>
</svg>
